X: 15
T: Il Prete Rosso - Allegro
C: Armand Aromin
H: 11/02/04
M: 4/4
L: 1/8
R: Reel
K: Amin
a2 gf e2 d2 | cdBc A2 E2 | A2 AB cBcd | edef edcB :|
AEAE BEBE | cEcE BEBE | AEAE BEBE | cBcd edcB :|
M: 3/4
A2 || c3 d ea | g4 d2 | c4 Bc | A4 A :|
